**kern	**kern
*part1	*part1
*staff2	*staff1
*I"Piano	*
*clefF4	*clefG2
*k[f#c#]	*k[f#c#]
=1	=1
[4.AA	8c#L 8e
.	8A 8c#
.	8BJ 8d
=	=
4.AA_	8c#L 8e
.	8A 8c#
.	8BJ 8d
=	=
8AAL]	8c#L 8e
8A	8d 8f#
8GJ	8eJ 8g
=	=
4F#	4d 4a
8F#	8ccn
=	=
4.G	8bL
.	8g
.	8aJ
=	=
4E	8gL 8b
.	8cc#X
8F#	8ddJ
=	=
*	*^
8C#L	8eeL	4a
8D	8ff#	.
8F#J	8ddJ	8f#
=	=	=
4.A;	(8ddL	(8f#L
.	8cc#;J)	8eJ)
.	8a	8r
*	*v	*v
=	=
*-	*-
!!!system-decoration: {(s1,s2)}
